img/3.svg

<svg width="169" height="216" viewBox="0 0 169 216" fill="none" xmlns="http://www.w3.org/2000/svg">
<path d="M165.006 152.131L162.006 152.119L162.006 152.129L162.006 152.139L165.006 152.131ZM117.278 105.497H114.278V108.166L116.93 108.477L117.278 105.497ZM117.278 103.906L116.852 100.937L114.278 101.306V103.906H117.278ZM157.449 61.8466L154.449 61.8376L154.449 61.8486L154.449 61.8596L157.449 61.8466ZM7.50568 65.2273L4.50586 65.1943L4.47253 68.2273H7.50568V65.2273ZM54.5369 65.2273V68.2273H57.4524L57.5357 65.3129L54.5369 65.2273ZM110.02 65.0284L107.02 65.0065L107.02 65.028L107.02 65.0495L110.02 65.0284ZM59.7074 88.892V85.892H56.7074V88.892H59.7074ZM59.7074 123.892H56.7074V126.892H59.7074V123.892ZM113.301 148.352L110.301 148.311L110.301 148.352L110.301 148.394L113.301 148.352ZM52.946 150.142L55.944 150.031L55.837 147.142H52.946V150.142ZM3.42898 150.142V147.142H0.39637L0.429153 150.174L3.42898 150.142ZM83.4716 215.784C107.836 215.784 128.912 209.34 143.965 198.138C159.065 186.9 168.058 170.882 168.006 152.122L162.006 152.139C162.052 168.777 154.142 183.085 140.383 193.325C126.575 203.6 106.834 209.784 83.4716 209.784V215.784ZM168.006 152.143C168.058 138.921 163.737 127.383 155.09 118.682C146.475 110.014 133.82 104.414 117.627 102.518L116.93 108.477C132.157 110.26 143.415 115.447 150.834 122.912C158.22 130.344 162.053 140.283 162.006 152.119L168.006 152.143ZM120.278 105.497V103.906H114.278V105.497H120.278ZM117.704 106.876C142.399 103.333 160.556 86.5305 160.449 61.8335L154.449 61.8596C154.54 82.9013 139.288 97.718 116.852 100.937L117.704 106.876ZM160.449 61.8556C160.555 26.3993 128.527 0.579536 83.8693 0.579536V6.57954C126.513 6.57954 154.542 30.8734 154.449 61.8376L160.449 61.8556ZM83.8693 0.579536C38.8846 0.579536 4.92768 26.8093 4.50586 65.1943L10.5055 65.2602C10.8791 31.2589 40.9563 6.57954 83.8693 6.57954V0.579536ZM7.50568 68.2273H54.5369V62.2273H7.50568V68.2273ZM57.5357 65.3129C57.8707 53.589 68.4442 44.9602 83.8693 44.9602V38.9602C66.482 38.9602 51.9986 49.0246 51.5382 65.1416L57.5357 65.3129ZM83.8693 44.9602C91.0781 44.9602 96.8923 47.1369 100.849 50.6339C104.775 54.1038 107.064 59.0324 107.02 65.0065L113.02 65.0503C113.076 57.4022 110.094 50.7968 104.823 46.1381C99.5821 41.5066 92.2713 38.9602 83.8693 38.9602V44.9602ZM107.02 65.0495C107.063 71.1274 104.423 76.2304 99.7346 79.8902C94.9919 83.5923 88.0307 85.892 79.4943 85.892V91.892C89.0546 91.892 97.4059 89.3196 103.427 84.6198C109.502 79.8775 113.076 73.0487 113.02 65.0073L107.02 65.0495ZM79.4943 85.892H59.7074V91.892H79.4943V85.892ZM56.7074 88.892V123.892H62.7074V88.892H56.7074ZM59.7074 126.892H79.4943V120.892H59.7074V126.892ZM79.4943 126.892C89.328 126.892 97.1567 129.318 102.418 133.173C107.612 136.979 110.386 142.211 110.301 148.311L116.301 148.394C116.415 140.176 112.576 133.178 105.964 128.333C99.4172 123.537 90.243 120.892 79.4943 120.892V126.892ZM110.301 148.394C110.388 154.662 107.781 159.919 103.217 163.672C98.609 167.461 91.8664 169.812 83.6705 169.812V175.812C92.9745 175.812 101.147 173.142 107.028 168.306C112.955 163.433 116.413 156.46 116.301 148.311L110.301 148.394ZM83.6705 169.812C67.087 169.812 56.3558 161.15 55.944 150.031L49.9481 150.253C50.5306 165.981 65.4528 175.812 83.6705 175.812V169.812ZM52.946 147.142H3.42898V153.142H52.946V147.142ZM0.429153 150.174C0.851295 189.223 35.9845 215.784 83.4716 215.784V209.784C37.8905 209.784 6.80211 184.641 6.4288 150.11L0.429153 150.174Z" fill="url(#paint0_linear)"/>
<defs>
<linearGradient id="paint0_linear" x1="89" y1="-59" x2="89" y2="337" gradientUnits="userSpaceOnUse">
<stop stop-color="#00D6EF"/>
<stop offset="0.328125" stop-color="#810BFF"/>
<stop offset="0.677083" stop-color="#FF0B9D"/>
<stop offset="1" stop-color="#A60636"/>
</linearGradient>
</defs>
</svg>

<svg width="169" height="216" viewBox="0 0 169 216" fill="none" xmlns="http://www.w3.org/2000/svg">
    <path d="M165.006 152.131l-3-.012v.02l3-.008zm-47.728-46.634h-3v2.669l2.652.311.348-2.98zm0-1.591l-.426-2.969-2.574.369v2.6h3zm40.171-42.06l-3-.008v.022l3-.013zM7.506 65.228l-3-.033-.033 3.033h3.033v-3zm47.03 0v3h2.916l.084-2.914-3-.086zm55.484-.199l-3-.022v.043l3-.02zM59.707 88.892v-3h-3v3h3zm0 35h-3v3h3v-3zm53.594 24.46l-3-.041v.083l3-.042zm-60.355 1.79l2.998-.111-.107-2.889h-2.891v3zm-49.517 0v-3H.396l.033 3.032 3-.032zm80.043 65.642c24.364 0 45.44-6.444 60.493-17.646 15.1-11.238 24.093-27.256 24.041-46.016l-6 .017c.046 16.638-7.864 30.946-21.623 41.186-13.808 10.275-33.549 16.459-56.911 16.459v6zm84.534-63.641c.052-13.222-4.269-24.76-12.916-33.461-8.615-8.668-21.27-14.268-37.463-16.164l-.697 5.959c15.227 1.783 26.485 6.97 33.904 14.435 7.386 7.432 11.219 17.371 11.172 29.207l6 .024zm-47.728-46.646v-1.591h-6v1.591h6zm-2.574 1.379c24.695-3.543 42.852-20.346 42.745-45.043l-6 .027c.091 21.041-15.161 35.858-37.597 39.077l.852 5.939zm42.745-45.02C160.555 26.399 128.527.58 83.869.58v6c42.644 0 70.673 24.293 70.58 55.258l6 .018zM83.869.58C38.885.58 4.928 26.81 4.506 65.194l6 .066c.373-34.001 30.45-58.68 73.363-58.68v-6zM7.506 68.227h47.03v-6H7.507v6zm50.03-2.914C57.87 53.589 68.444 44.96 83.869 44.96v-6c-17.387 0-31.87 10.065-32.33 26.182l5.997.17zM83.869 44.96c7.21 0 13.023 2.177 16.98 5.674 3.926 3.47 6.215 8.398 6.171 14.373l6 .043c.056-7.648-2.926-14.253-8.197-18.912-5.24-4.631-12.552-7.178-20.954-7.178v6zm23.151 20.09c.043 6.077-2.597 11.18-7.285 14.84-4.743 3.702-11.704 6.002-20.24 6.002v6c9.56 0 17.91-2.572 23.932-7.272 6.075-4.743 9.649-11.571 9.593-19.613l-6 .042zM79.494 85.891H59.707v6h19.787v-6zm-22.787 3v35h6v-35h-6zm3 38h19.787v-6H59.707v6zm19.787 0c9.834 0 17.663 2.426 22.924 6.281 5.194 3.806 7.968 9.038 7.883 15.138l6 .083c.114-8.218-3.725-15.216-10.337-20.061-6.547-4.796-15.721-7.441-26.47-7.441v6zm30.807 21.502c.087 6.268-2.52 11.525-7.084 15.278-4.608 3.789-11.35 6.14-19.546 6.14v6c9.303 0 17.476-2.67 23.357-7.506 5.927-4.873 9.385-11.846 9.273-19.995l-6 .083zm-26.63 21.418c-16.584 0-27.315-8.662-27.727-19.781l-5.996.222c.583 15.728 15.505 25.559 33.723 25.559v-6zm-30.725-22.67H3.429v6h49.517v-6zM.429 150.174c.422 39.049 35.555 65.61 83.043 65.61v-6c-45.581 0-76.67-25.143-77.043-59.674l-6 .064z" fill="url(#a)"/>
    <defs>
        <linearGradient id="a" x1="89" y1="-59" x2="89" y2="337" gradientUnits="userSpaceOnUse">
            <stop stop-color="#00D6EF"/>
            <stop offset=".328" stop-color="#810BFF"/>
            <stop offset=".677" stop-color="#FF0B9D"/>
            <stop offset="1" stop-color="#A60636"/>
        </linearGradient>
    </defs>
</svg>
